build/system/ArrowsHorizontalSolid.svg

<svg xmlns="http://www.w3.org/2000/svg" fill="none" viewBox="0 0 24 24" focusable="false"><path d="M0 0H24V24H0z"/><path fill="#74767B" fill-rule="evenodd" d="M2 7C2 5.34315 3.34315 4 5 4L19 4C20.6569 4 22 5.34315 22 7L22 17C22 18.6569 20.6569 20 19 20L5 20C3.34315 20 2 18.6569 2 17L2 7ZM8.4297 8.43336L9.86388 7.16069C10.1422 6.91373 10.1676 6.48791 9.92063 6.2096C9.67366 5.93129 9.24784 5.90589 8.96954 6.15285L6.21437 8.59775C6.06296 8.73211 5.9864 8.9194 5.98783 9.10708C5.9864 9.29476 6.06296 9.48206 6.21437 9.61642L8.96954 12.0613C9.24784 12.3083 9.67366 12.2829 9.92063 12.0046C10.1676 11.7263 10.1422 11.3004 9.86388 11.0535L8.42969 9.7808L15.8856 9.7808C16.2577 9.7808 16.5593 9.47916 16.5593 9.10708C16.5593 8.73499 16.2577 8.43336 15.8856 8.43336L8.4297 8.43336ZM14.1284 12.9356L15.5626 14.2082L8.21831 14.2082C7.84623 14.2082 7.5446 14.5099 7.5446 14.882C7.5446 15.254 7.84623 15.5557 8.21832 15.5557L15.5626 15.5557L14.1284 16.8284C13.8501 17.0753 13.8247 17.5011 14.0717 17.7794C14.3186 18.0578 14.7445 18.0832 15.0228 17.8362L17.7779 15.3913C17.9294 15.2569 18.0059 15.0696 18.0045 14.882C18.0059 14.6943 17.9294 14.507 17.7779 14.3726L15.0228 11.9277C14.7445 11.6808 14.3186 11.7062 14.0717 11.9845C13.8247 12.2628 13.8501 12.6886 14.1284 12.9356Z"/></svg>

<svg xmlns="http://www.w3.org/2000/svg" fill="none" viewBox="0 0 24 24" focusable="false"><path fill="#74767B" fill-rule="evenodd" d="M2 7c0-1.66 1.34-3 3-3h14c1.65 0 3 1.34 3 3v10c0 1.65-1.35 3-3 3H5c-1.66 0-3-1.35-3-3zm6.42 1.43 1.44-1.27c.28-.25.3-.68.06-.96a.69.69 0 0 0-.96-.05L6.21 8.59c-.15.14-.23.32-.23.51s.08.38.23.51l2.75 2.45c.28.24.71.22.96-.06.24-.28.22-.7-.06-.95L8.42 9.78h7.46c.37 0 .67-.31.67-.68s-.3-.67-.67-.67zm5.7 4.5 1.44 1.27H8.21c-.37 0-.67.3-.67.68 0 .37.3.67.67.67h7.35l-1.44 1.27c-.27.25-.3.68-.05.95.24.28.67.31.95.06l2.75-2.44a.7.7 0 0 0 .23-.51c0-.19-.08-.38-.23-.51l-2.75-2.45a.677.677 0 0 0-.9 1.01"/></svg>
